!!!COM: Bach, Johann Sebastian
!!!OTL: 273. Ein' feste Burg ist unser Gott
!!!ONM: No. 273
!!!OCL: Erk
!!!SCA: BWV 80.8
!!!YOE: Riemenschneider, Albert
!!!OPR: 371 Harmonized Chorales and 69 Chorale Melodies with Figured Bass
!!!OPT: Bach Chorale Harmonizations
!!!ONB: From the end of Cantata 80.
**harm	**root	**kern	**kern	**kern	**kern
!	!	!bass	!tenor	!alto	!sprno
*Iorgan	*Iorgan	*Iorgan	*Iorgan	*Iorgan	*Iorgan
*>[A,A,B]	*>[A,A,B]	*>[A,A,B]	*>[A,A,B]	*>[A,A,B]	*>[A,A,B]
*>norep[A,B]	*>norep[A,B]	*>norep[A,B]	*>norep[A,B]	*>norep[A,B]	*>norep[A,B]
*>A	*>A	*>A	*>A	*>A	*>A
*k[f#c#g#d#a#e#]	*k[f#c#g#d#a#e#]	*k[f#c#g#d#a#e#]	*k[f#c#g#d#a#e#]	*k[f#c#g#d#a#e#]	*k[f#c#g#d#a#e#]
*F#:	*F#:	*F#:	*F#:	*F#:	*F#:
*met(c)	*met(c)	*met(c)	*met(c)	*met(c)	*met(c)
*M4/4	*M4/4	*M4/4	*M4/4	*M4/4	*M4/4
*MM60	*MM60	*MM60	*MM60	*MM60	*MM60
I	4DD	8f#	8a#	4cc#	4ff#
.	.	8e#	8g#	.	.
=1	=1	=1	=1	=1	=1
vi7	4BB	4d#	8f#	8cc#	4ff#
.	.	.	8g#	8b	.
Ic	4DD	8c#	8a#	8a#	4ff#
.	.	8B	8b	8g#	.
Ib	8DD	8A#	4cc#	4f#	8cc#
IV	8GG	8B	.	.	8dd#
viib	4CC#	8A#	4b	4g#	4ee#
.	.	8G#	.	.	.
=2	=2	=2	=2	=2	=2
Ib	8DD	4A#	4a#	8c#	8ff#
iii	8FF#	.	.	4cc#	8ee#
V/V	4EE	4G#	8d#	.	4dd#
.	.	.	8g#	8b#	.
V;	4AA;	4C#;	4e#;	4g#;	4cc#;
vi	4BB	4D#	8A#	4dd#	4ff#
.	.	.	8B#	.	.
=3	=3	=3	=3	=3	=3
Vb	4AA	8E#	4c#	8g#	4ee#
.	.	8F#	.	8a#	.
ii	4EE	4G#	8g#	4b	4dd#
.	.	.	8f#	.	.
iii	4FF#	4A#	4e#	8a#	4cc#
.	.	.	.	8g#	.
IV	8GG	8B	8d#	8f#	8dd#
V	8AA	8c#	8e#	8e#	8cc#
=4	=4	=4	=4	=4	=4
IVb	4GG	8d#	4f#	4d#	8b
.	.	8B	.	.	8a#
V	4AA	8c#	8c#	4e#	4g#
.	.	8C#	8B	.	.
I;	4DD;	4F#;	4A#;	4c#;	4f#;
=:|!	=:|!	=:|!	=:|!	=:|!	=:|!
*>B	*>B	*>B	*>B	*>B	*>B
!! Repeat from the beginning.
!! Continuing.
I	4DD	8F#	8A#	4f#	4f#
.	.	8G#	8B	.	.
=5	=5	=5	=5	=5	=5
iii	4FF#	4A#	8c#	8e#	4cc#
.	.	.	8f#	8a#	.
Vb/V	4EE	4B#	8e#	4g#	4dd#
.	.	.	8d#	.	.
V	4AA	8c#	4e#	8g#	4cc#
.	.	8F#	.	8a#	.
V/V	4EE	4G#	4d#	4g#	4b#
=6	=6	=6	=6	=6	=6
!!linebreak: 2
V;	2AA;	2C#;	2e#;	2g#;	2cc#;
vi	4BB	4D#	8A#	4f#	4f#
.	.	.	8B	.	.
Ib	4DD	4A#	4c#	8f#	4cc#
.	.	.	.	8e	.
=7	=7	=7	=7	=7	=7
IV	4GG	4B	4f#	8d#	4dd#
.	.	.	.	8f#	.
viib	4CC#	4G#	4g#	4b	4ee#
I;	4DD;	4F#;	4c#;	4a#;	4ff#;
iii	4FF#	4A#	4c#	4a#	4ee#
=8	=8	=8	=8	=8	=8
vi7	4BB	4D#	8c#	4a#	4ff#
.	.	.	8B#	.	.
Vb	4AA	4E#	4c#	8g#	4ee#
.	.	.	.	8cc#	.
vi7b	4BB	4F#	4c#	4a#	2dd#
V/V	4EE	4G#	4B#	8g#	.
.	.	.	.	8f#	.
=9	=9	=9	=9	=9	=9
V;	4AA;	4C#;	4G#;	4e#;	4cc#;
ii	4EE	8G#	8B	4g#	4dd#
.	.	8A#	8c#	.	.
IV	4GG	4B	8d#	8f#	4dd#
.	.	.	8e#	8g#	.
I	4DD	4F#	8f#	4a#	4cc#
.	.	.	8e	.	.
=10	=10	=10	=10	=10	=10
Vb/ii	4BB	4F##	4d#	4a#	8dd#
.	.	.	.	.	8cc#
ii	4EE	4G#	4d#	8a#	4b
.	.	.	.	8g#	.
VI;	4BB;	4D#;	4d#;	4f##;	4a#;
vi	4BB	4D#	8d#	4a#	4ff#
.	.	.	8c#	.	.
=11	=11	=11	=11	=11	=11
viib	4CC#	8G#	8B	4g#	4ee#
.	.	8A#	8c#	.	.
IV	8GG	8B	4d#	8f#	4dd#
ii	8EE	8G#	.	8b	.
V7b	8AA	8E#	8g#	8b	4cc#
V	8AA	8C#	8e#	16a#	.
.	.	.	.	16g#	.
I	4DD	8F#	4f#	4a#	8dd#
.	.	8E#	.	.	8cc#
=12	=12	=12	=12	=12	=12
IVb	8GG	8D#	4f#	8b	8b
IV7	8GG	8BB	.	8d#	8a#
V	4AA	4C#	8c#	4e#	4g#
.	.	.	8B	.	.
I;	4DD;	4FF#;	4A#;	4c#;	4f#;
==	==	==	==	==	==
*-	*-	*-	*-	*-	*-
!!!CDT: 1685/3//-1750/7/28
!!!OCY: Deutschland
!!!AGN: chorale
!!!AST: Baroque
!!!AIN: vox
!!!YOY: 1941
!!!PPP: New York; London
!!!PPR: G. Schirmer
!!!ENC: David Huron
!!!EED: David Huron
!!!YEN: United States of America
!!!YER: 1992
!!!YEC: Copyright 1992 David Huron
!!!YEM: Rights to all derivative electronic formats reserved.
!!!YER: March 20, 1996
!!!AMT: simple quadruple
!!!EEV: 1.1
!!chor2scor: -l 2 -s 0.6 -o %b.pmx
